X: 12049
T: Eroticon VI
R: reel
M: 4/4
K: Adorian
|:EA ~A2 AGED|EA ~A2 AGED|EA ~A2 BA ~A2|cA ~A2 dAeA|
[1 EA ~A2 AGED|EA ~A2 AGED|(3EFG FA G3d|ecde dcAG:|
[2 e2 ed cA d2 -|dddA BAGA|B2 BG BccA|d2 dc dege||
|:~a2 ag edcA|~d2 dc dege|~a2 ag edcA|dege ga ~a2|
~a2 ag edcA|~d2 dc dege|a=bag edce|1 dcAG Acde:|2 dcAG AGED||

